X: 930
T: Missa Pater noster Agnus I
C: Giovanni Perluigi da Palestrina
L: 1/4
M: 4/2
N: Derived from Agnus_I_81.krn
%%staves [1 2 3 4]
V: 1 clef=treble
V: 2 clef=treble
V: 3 clef=treble-8
V: 4 clef=bass
K: C
[V:1] z8 | 
[V:2] z8 | 
[V:3] z8 | 
[V:4] C6B,2 | 
[V:1] z8 | 
[V:2] z8 | 
[V:3] c8 | 
[V:4] A,2F,G,A,B,C2- | 
[V:1] z8 | 
[V:2] z4z2c2- | 
[V:3] d4e4- | 
[V:4] C2B,2C3B, | 
[V:1] z4c4- | 
[V:2] c2B2A2FG | 
[V:3] e2e2f4- | 
[V:4] A,2G,2F,4- | 
[V:1] c4d4 | 
[V:2] ABc4B2 | 
[V:3] f2e2d4 | 
[V:4] F,2C,2G,4 | 
[V:1] e6e2 | 
[V:2] c2>B2A2G2 | 
[V:3] c2>d2e4 | 
[V:4] C,2C4C2 | 
[V:1] f6e2 | 
[V:2] F2DEFGA2- | 
[V:3] defga2A2 | 
[V:4] D6C2 | 
[V:1] d4^c4 | 
[V:2] A2G2A4- | 
[V:3] d4e4 | 
[V:4] _B,4A,2A,2- | 
[V:1] z2d4c2 | 
[V:2] A4z2A2- | 
[V:3] f4e4 | 
[V:4] A,2F,2G,2A,2 | 
[V:1] d2>e2f2e2- | 
[V:2] A2G2A2A2 | 
[V:3] z2d4c2 | 
[V:4] _B,4A,4 | 
[V:1] e2d4c2 | 
[V:2] _B4A4 | 
[V:3] d2>e2f2e2- | 
[V:4] G,4A,4 | 
[V:1] d4e4 | 
[V:2] G2F2E3D/ E/ | 
[V:3] e2d4^c2 | 
[V:4] z8 | 
[V:1] d2c2B4 | 
[V:2] FGA4^G2 | 
[V:3] d4e4 | 
[V:4] z8 | 
[V:1] A2c4B2- | 
[V:2] A3G/ F/E2G2 | 
[V:3] A4z2d2- | 
[V:4] z2A,4G,2 | 
[V:1] B2A4G2 | 
[V:2] E2F4ED | 
[V:3] d2^c2d4 | 
[V:4] A,4_B,4 | 
[V:1] ABcdefg2 | 
[V:2] C2c4_B2- | 
[V:3] e6d2- | 
[V:4] A,4G,4 | 
[V:1] f2e2>d2d2- | 
[V:2] BAA4G2 | 
[V:3] d2c2d4 | 
[V:4] A,4_B,4 | 
[V:1] d2^c2d2d2- | 
[V:2] A2A4D2 | 
[V:3] e4d4- | 
[V:4] A,4D,4- | 
[V:1] d2A2c2d2 | 
[V:2] F4E2D2- | 
[V:3] d4z4 | 
[V:4] D,4z4 | 
[V:1] e2>d2e2f2- | 
[V:2] D2^CB,C2D2 | 
[V:3] z4z2d2- | 
[V:4] A,6D,2 | 
[V:1] fecde2f2 | 
[V:2] A4z2A2- | 
[V:3] d2A2c2d2 | 
[V:4] F,4E,2D,2- | 
[V:1] e4z2A2- | 
[V:2] A2E2F4 | 
[V:3] e4d2d2 | 
[V:4] D,2^C,2D,4 | 
[V:1] A2E2G2A2 | 
[V:2] E4D2C2 | 
[V:3] A2c2B2A2- | 
[V:4] z8 | 
[V:1] B4c3A | 
[V:2] B,2E2E2A2- | 
[V:3] A2^G2A4 | 
[V:4] z8 | 
[V:1] B4A4- | 
[V:2] A2G2F3E/ D/ | 
[V:3] e4z2a2- | 
[V:4] z8 | 
[V:1] A4z4 | 
[V:2] FEFGA4- | 
[V:3] a2d2f4 | 
[V:4] D6A,2 | 
[V:1] z2A4E2 | 
[V:2] A4A,4 | 
[V:3] e2d4^c2 | 
[V:4] C2D2E4 | 
[V:1] F2G2A4 | 
[V:2] z4z2A2- | 
[V:3] d2d4A2 | 
[V:4] D2G,2D,2F,G, | 
[V:1] E2e2>d2c2 | 
[V:2] A2E2G2A2 | 
[V:3] c2>d2e2f2 | 
[V:4] A,B,2<C2B,A,2 | 
[V:1] edd4^c2 | 
[V:2] _B4A4 | 
[V:3] g2>f2e4 | 
[V:4] G,4A,4 | 
[V:1] d2A4D2 | 
[V:2] F2>E2DEFG | 
[V:3] d8 | 
[V:4] D,4z2D2- | 
[V:1] F2>G2ABc2- | 
[V:2] A4z2A2- | 
[V:3] z2d4A2 | 
[V:4] D2D,2F,3G, | 
[V:1] cde4c2 | 
[V:2] A2E2G2A2 | 
[V:3] c2>d2e2f2 | 
[V:4] A,B,2<C2B,A,2 | 
[V:1] edd4^c2 | 
[V:2] _B4A4 | 
[V:3] g2>f2e4 | 
[V:4] G,4A,4 | 
[V:1] d8 |]  
[V:2] A8 |]  
[V:3] d8 |]  
[V:4] D,8 |]  

